src/icons/svg/list.svg

<?xml version="1.0" encoding="UTF-8" standalone="no"?>
<svg width="128px" height="128px" viewBox="0 0 128 128" version="1.1" xmlns="http://www.w3.org/2000/svg" xmlns:xlink="http://www.w3.org/1999/xlink">
    <!-- Generator: Sketch 40 (33762) - http://www.bohemiancoding.com/sketch -->
    <title>list</title>
    <desc>Created with Sketch.</desc>
    <defs></defs>
    <g id="Page-1" stroke="none" stroke-width="1" fill="none" fill-rule="evenodd">
        <g id="list" fill="#000000">
            <g id="Group">
                <path d="M1.58513932,12.0869081 C1.58513932,18.7032486 5.55940918,24.0668524 10.4619195,24.0668524 C15.3644298,24.0668524 19.3386997,18.7032486 19.3386997,12.0869081 C19.3386997,5.47056754 15.3644298,0.106963788 10.4619195,0.106963788 C5.55940918,0.106963788 1.58513932,5.47056754 1.58513932,12.0869081 L1.58513932,12.0869081 Z" id="Shape"></path>
                <path d="M125.860062,0.106963788 L35.6127967,0.106963788 C34.3446852,0.106963788 33.4992776,1.53314763 33.4992776,2.95933148 L33.4992776,21.2144847 C33.4992776,22.9259053 34.5560372,24.0668524 35.6127967,24.0668524 L125.860062,24.0668524 C127.128173,24.0668524 127.973581,22.6406685 127.973581,21.2144847 L127.973581,2.95933148 C127.973581,1.24791086 126.916821,0.106963788 125.860062,0.106963788 L125.860062,0.106963788 Z" id="Shape"></path>
                <path d="M0.105675955,62.8590529 C0.105675955,69.4753935 4.07994582,74.8389972 8.98245614,74.8389972 C13.8849665,74.8389972 17.8592363,69.4753935 17.8592363,62.8590529 C17.8592363,56.2427124 13.8849665,50.8791086 8.98245614,50.8791086 C4.07994582,50.8791086 0.105675955,56.2427124 0.105675955,62.8590529 L0.105675955,62.8590529 Z" id="Shape"></path>
                <path d="M124.169247,50.8791086 L33.9219814,50.8791086 C32.65387,50.8791086 31.8084623,52.3052925 31.8084623,53.7314763 L31.8084623,71.9866295 C31.8084623,73.6980501 32.8652219,74.8389972 33.9219814,74.8389972 L124.169247,74.8389972 C125.437358,74.8389972 126.282766,73.4128134 126.282766,71.9866295 L126.282766,53.7314763 C126.282766,52.3052925 125.437358,50.8791086 124.169247,50.8791086 L124.169247,50.8791086 Z" id="Shape"></path>
                <path d="M0.105675955,115.913092 C0.105675955,122.529432 4.07994582,127.893036 8.98245614,127.893036 C13.8849665,127.893036 17.8592363,122.529432 17.8592363,115.913092 C17.8592363,109.296751 13.8849665,103.933148 8.98245614,103.933148 C4.07994582,103.933148 0.105675955,109.296751 0.105675955,115.913092 L0.105675955,115.913092 Z" id="Shape"></path>
                <path d="M124.169247,103.933148 L33.9219814,103.933148 C32.65387,103.933148 31.8084623,105.359331 31.8084623,106.785515 L31.8084623,125.040669 C31.8084623,126.752089 32.8652219,127.893036 33.9219814,127.893036 L124.169247,127.893036 C125.437358,127.893036 126.282766,126.466852 126.282766,125.040669 L126.282766,106.785515 C126.282766,105.359331 125.437358,103.933148 124.169247,103.933148 L124.169247,103.933148 Z" id="Shape"></path>
            </g>
        </g>
    </g>
</svg>

<svg width="128" height="128" xmlns="http://www.w3.org/2000/svg"><path d="M1.585 12.087c0 6.616 3.974 11.98 8.877 11.98 4.902 0 8.877-5.364 8.877-11.98 0-6.616-3.975-11.98-8.877-11.98-4.903 0-8.877 5.364-8.877 11.98zM125.86.107H35.613c-1.268 0-2.114 1.426-2.114 2.852v18.255c0 1.712 1.057 2.853 2.114 2.853h90.247c1.268 0 2.114-1.426 2.114-2.853V2.96c0-1.711-1.057-2.852-2.114-2.852zM.106 62.86c0 6.615 3.974 11.979 8.876 11.979 4.903 0 8.877-5.364 8.877-11.98 0-6.616-3.974-11.98-8.877-11.98-4.902 0-8.876 5.364-8.876 11.98zM124.17 50.88H33.921c-1.268 0-2.114 1.425-2.114 2.851v18.256c0 1.711 1.057 2.852 2.114 2.852h90.247c1.268 0 2.114-1.426 2.114-2.852V53.73c0-1.426-.846-2.852-2.114-2.852zM.106 115.913c0 6.616 3.974 11.98 8.876 11.98 4.903 0 8.877-5.364 8.877-11.98 0-6.616-3.974-11.98-8.877-11.98-4.902 0-8.876 5.364-8.876 11.98zm124.064-11.98H33.921c-1.268 0-2.114 1.426-2.114 2.853v18.255c0 1.711 1.057 2.852 2.114 2.852h90.247c1.268 0 2.114-1.426 2.114-2.852v-18.255c0-1.427-.846-2.853-2.114-2.853z" fill-rule="evenodd"/></svg>
